floristman/img/sprite/user.svg

<svg width="46" height="46" viewBox="0 0 46 46" fill="none" xmlns="http://www.w3.org/2000/svg">
<path d="M27.6006 29.1333V26.0667C28.2906 25.7247 30.264 23.3757 30.471 21.5403C31.0138 21.4989 31.8663 21.0005 32.1178 19.0333C32.2527 17.9768 31.7161 17.3834 31.391 17.1963C31.391 17.1963 32.2006 15.6584 32.2006 13.8015C32.2006 10.0786 30.7393 6.90153 27.6006 6.90153C27.6006 6.90153 26.5104 4.60153 23.0006 4.60153C16.4962 4.60153 13.8006 8.77373 13.8006 13.8015C13.8006 15.4943 14.6102 17.1963 14.6102 17.1963C14.2851 17.3834 13.7485 17.9783 13.8834 19.0333C14.1349 21.0005 14.9874 21.4989 15.5302 21.5403C15.7372 23.3757 17.7106 25.7247 18.4006 26.0667V29.1333C16.8673 33.7333 4.60059 30.6667 4.60059 41.4H41.4006C41.4006 30.6667 29.1339 33.7333 27.6006 29.1333Z" fill="#EB8671"/>
</svg>

<svg width="46" height="46" fill="none" xmlns="http://www.w3.org/2000/svg"><path d="M27.6 29.133v-3.066c.69-.342 2.664-2.691 2.871-4.527.543-.041 1.395-.54 1.647-2.507.135-1.056-.402-1.65-.727-1.837 0 0 .81-1.538.81-3.395 0-3.722-1.462-6.9-4.6-6.9 0 0-1.09-2.3-4.6-2.3-6.505 0-9.2 4.173-9.2 9.2 0 1.693.81 3.395.81 3.395-.326.187-.863.782-.728 1.837.252 1.967 1.104 2.466 1.647 2.507.207 1.836 2.18 4.185 2.87 4.527v3.066c-1.533 4.6-13.8 1.534-13.8 12.267h36.8c0-10.733-12.266-7.667-13.8-12.267z" fill="#EB8671"/></svg>
